X:1
T:Title
%%score { ( 1 3 ) | ( 2 4 ) }
L:1/8
M:6/8
K:Bb
V:1 treble nm="Grand Piano"
V:3 treble 
V:2 bass 
V:4 bass 
V:1
 z3 z2[Q:1/4=100] [DF] | [DF][DF][DF] AGF | [DB]3 [DF]2 B | dcB edc | c3- c2 F | [DF][DF][DF] AGF | %6
 [DB]3 [DF]2 [DF] | AGF FGA | [DB]3- [DB]2 [B,DF] | [B,EG][B,EG][B,EG] [B,GB][B,FA][B,EG] | %10
 [B,DF]3 [F,B,D]2 [B,DF] | [CE][CE][CE] [EA][G,EG][A,EF] | F3 z3 | %13
 [B,EG][B,EG][B,EG] [B,GB][B,FA][B,EG] | [B,DF]3 [B,D]2 [B,DF] | AGF FGA | %16
[M:5/8] [DB]-[DB]- [DB]3 |[M:1/8] [Fd] |[M:3/4] cc cc dc | [DB]3 [DF]2 [Fd] | %20
 [=Ec][Ec] [Ec][EG] [EA][EB] |[M:5/8] A-A- A3 |[M:1/8] F |[M:3/4] [Fd][Ec] [DB][Fd] [Fc][_AB] | %24
 [GB]3 G2 G | FB BA GA |[M:5/8] [DB]-[DB]- [DB]3 |] %27
V:2
 z3 z2 [B,,B,] | [B,,B,][B,,B,][B,,B,] [F,E][F,G,E][F,A,E] | [B,,B,]3 [B,,B,]2[K:treble] [B,D] | %3
 [B,F][B,E][B,D] [A,CF][B,F][K:bass][G,B,=E] | [F,A,F]3- [F,A,F]2 [F,A,E] | %5
 [B,,B,][B,,B,][B,,B,] [F,E][F,G,E][E,A,E] | [B,,B,]3 [B,,B,]2 [B,,B,] | %7
 [F,E][F,E][F,E] [F,E][F,E][F,E] | [B,,F,]3- [B,,F,]2 B,, | E,E,E, E,E,E, | B,,3 B,,2 B,, | %11
 F,F,F, F,F,F, | z3[K:treble] B2[K:bass] B,, | E,E,E, E,E,E, | B,,3 B,,2 B,, | %15
 [F,E][F,E][F,E] [F,E][F,E][F,E] |[M:5/8] [B,,F,]-[B,,F,]- [B,,F,]3 |[M:1/8] [B,,B,] | %18
[M:3/4] [E,A,E][F,A,E] [F,A,E][F,A,E] [F,B,F][F,A,E] | [B,,B,]3 [B,,F,]2 [B,,B,] | %20
 [C,B,][C,B,] [C,B,][C,B,] [C,C][C,C] |[M:5/8] [F,CF]-[F,CF]- [F,CF]3 |[M:1/8] [F,A,] | %23
[M:3/4] [B,,B,][B,,F,] [B,,F,][B,,B,] [C,A,][D,B,] | [E,B,]3 [E,B,E]2 [E,B,E] | %25
 [F,B,D][F,D] [F,D][F,E] [F,E][F,E] |[M:5/8] [B,,F,]-[B,,F,]- [B,,F,]3 |] %27
V:3
 x6 | x6 | x6 | x6 | x6 | x6 | x6 | x6 | x6 | x6 | x6 | x6 | [B,D]3- [B,D]2 [B,DF] | x6 | x6 | x6 | %16
[M:5/8] x5 |[M:1/8] x |[M:3/4] x6 | x6 | x6 |[M:5/8] x5 |[M:1/8] x |[M:3/4] x6 | x6 | x6 | %26
[M:5/8] x5 |] %27
V:4
 x6 | x6 | x5[K:treble] x | x5[K:bass] x | x6 | x6 | x6 | x6 | x6 | x6 | x6 | x6 | %12
 B,,6[K:treble][K:bass] | x6 | x6 | x6 |[M:5/8] x5 |[M:1/8] x |[M:3/4] x6 | x6 | x6 |[M:5/8] x5 | %22
[M:1/8] x |[M:3/4] x6 | x6 | x6 |[M:5/8] x5 |] %27

